64x64/apps/fluajho.svg

<svg width="64" height="64" version="1.1" xmlns="http://www.w3.org/2000/svg">
 <path d="m33.4 60.999999c12.6 0 16.6-9.943823 16.6-18.2 0-11.2-10.247562-17.027915-12.4-26.599999-0.819049-3.642382-0.6-11.2-0.6-11.2s-23 16.8-23 36.399999c0 9.239529 6.8 19.6 19.4 19.6z" style="opacity:.2"/>
 <path d="m33.4 59.999999c12.6 0 16.6-9.943823 16.6-18.2 0-11.2-10.247562-17.027915-12.4-26.599999-0.819049-3.642382-0.6-11.2-0.6-11.2s-23 16.8-23 36.399999c0 9.239529 6.8 19.6 19.4 19.6z" style="fill:#4f4f4f"/>
 <path d="m35 13s-17 11.6-17 28.399999c0 7.596784 7 15.600001 15.4 15.600001s11.6-10.000001 11.6-14.200001c0-2.8-0.4-9.8-7.4-9.8s-8.4 4.000001-8.4 4.000001 2.965655-0.460602 4.2 0.199999c1.483497 0.793945 2.6 2.113003 2.6 4.2 0 2.8-2.6 4.600001-5.4 4.600001-1.9799 0-4.6-2.620101-4.6-4.600001 0-11.2 10-12.399999 10-12.399999s3-0.4 4.4 1c-5.6-9.799999-5.4-17-5.4-17z" style="opacity:.2"/>
 <path d="m35 12s-17 11.6-17 28.399999c0 7.596784 7 15.600001 15.4 15.600001s11.6-10.000001 11.6-14.200001c0-2.8-0.4-9.8-7.4-9.8s-8.4 4.000001-8.4 4.000001 2.965655-0.460602 4.2 0.199999c1.483497 0.793945 2.6 2.113003 2.6 4.2 0 2.8-2.6 4.600001-5.4 4.600001-1.9799 0-4.6-2.620101-4.6-4.600001 0-11.2 10-12.399999 10-12.399999s3-0.4 4.4 1c-5.6-9.799999-5.4-17-5.4-17z" style="fill:#f4f4f7"/>
 <path d="m37 4s-23 16.800392-23 36.400391c0 0.146298 0.016126 0.294591 0.019531 0.441406 0.429447-19.315246 22.861609-35.754049 22.962891-35.828125 0.007573-0.53473 0.017578-1.0136719 0.017578-1.0136719zm-0.017578 2.0292969c-0.029114 2.0958322-0.031658 7.2844511 0.617187 10.169922 2.118297 9.420256 12.069381 15.219279 12.384766 26.076172 0.002908-0.157686 0.015625-0.318059 0.015625-0.47461 0-11.2-10.247953-17.029478-12.400391-26.601562-0.560226-2.491375-0.626013-6.6864607-0.617187-9.1699221z" style="fill:#f4f4f7;opacity:.1"/>
</svg>

<svg width="64" height="64" xmlns="http://www.w3.org/2000/svg"><path d="M33.4 61C46 61 50 51.056 50 42.8c0-11.2-10.248-17.028-12.4-26.6C36.781 12.558 37 5 37 5S14 21.8 14 41.4C14 50.64 20.8 61 33.4 61z" style="opacity:.2"/><path d="M33.4 60C46 60 50 50.056 50 41.8c0-11.2-10.248-17.028-12.4-26.6C36.781 11.558 37 4 37 4S14 20.8 14 40.4C14 49.64 20.8 60 33.4 60z" style="fill:#4f4f4f"/><path d="M35 13S18 24.6 18 41.4C18 48.997 25 57 33.4 57S45 47 45 42.8c0-2.8-.4-9.8-7.4-9.8s-8.4 4-8.4 4 2.966-.46 4.2.2c1.483.794 2.6 2.113 2.6 4.2 0 2.8-2.6 4.6-5.4 4.6-1.98 0-4.6-2.62-4.6-4.6C26 30.2 36 29 36 29s3-.4 4.4 1C34.8 20.2 35 13 35 13z" style="opacity:.2"/><path d="M35 12S18 23.6 18 40.4C18 47.997 25 56 33.4 56S45 46 45 41.8c0-2.8-.4-9.8-7.4-9.8s-8.4 4-8.4 4 2.966-.46 4.2.2c1.483.794 2.6 2.113 2.6 4.2 0 2.8-2.6 4.6-5.4 4.6-1.98 0-4.6-2.62-4.6-4.6C26 29.2 36 28 36 28s3-.4 4.4 1C34.8 19.2 35 12 35 12z" style="fill:#f4f4f7"/><path d="M37 4S14 20.8 14 40.4c0 .147.016.295.02.442.429-19.315 22.861-35.754 22.962-35.828C36.99 4.479 37 4 37 4zm-.018 2.03c-.029 2.095-.031 7.284.618 10.17 2.118 9.42 12.069 15.218 12.384 26.075.003-.157.016-.318.016-.474 0-11.2-10.248-17.03-12.4-26.602-.56-2.491-.626-6.686-.618-9.17z" style="fill:#f4f4f7;opacity:.1"/></svg>
